source/img/energo/activity-1.4.svg

<svg width="134" height="135" viewBox="0 0 134 135" fill="none" xmlns="http://www.w3.org/2000/svg">
<mask id="path-1-outside-1" maskUnits="userSpaceOnUse" x="1" y="30.334" width="63" height="79" fill="black">
<rect fill="white" x="1" y="30.334" width="63" height="79"/>
<path d="M12.706 31.334C9.91441 31.334 7.63616 33.604 7.63616 36.3871C7.63616 39.1548 9.91441 41.3868 12.706 41.3868C14.6243 41.3868 16.3788 40.3296 17.2365 38.6597H33.363C34.2207 40.3296 35.9482 41.3868 37.8665 41.3868C40.6581 41.3868 42.9477 39.1548 42.9633 36.3871C42.9633 33.604 40.6737 31.334 37.8665 31.334C35.9638 31.334 34.2363 32.3912 33.363 34.0611H17.2365C16.3788 32.3912 14.6243 31.334 12.706 31.334ZM12.679 32.4034C14.2854 32.4034 15.7497 33.3675 16.3736 34.8364L16.5084 35.1572H34.0641L34.1989 34.8364C34.8384 33.3675 36.2757 32.4034 37.8665 32.4034C40.0655 32.4034 41.8576 34.207 41.8576 36.3871C41.8576 38.5672 40.0655 40.3173 37.8665 40.3173C36.2601 40.3173 34.8228 39.3799 34.1989 37.9111L34.0641 37.5902H16.5084L16.3736 37.9111C15.7497 39.3799 14.2854 40.3173 12.679 40.3173C10.4801 40.3173 8.71485 38.5672 8.71485 36.3871C8.71485 34.207 10.4801 32.4034 12.679 32.4034ZM27.5111 39.1142V47.8569L27.9156 47.9638C30.1145 48.5669 32.0529 49.943 33.363 51.8138L33.5248 52.0277H33.9832C47.9256 52.0277 59.2743 63.2833 59.3055 77.1062V77.6677H59.9527C61.0288 77.6677 61.8943 78.5258 61.8943 79.5927C61.8943 80.6595 61.0288 81.5444 59.9527 81.5444H48.0871C47.011 81.5444 46.1185 80.6595 46.1185 79.5927C46.1185 78.5258 47.011 77.6677 48.0871 77.6677H48.7073V77.1062C48.6761 68.9424 42.1907 62.5618 33.9562 62.5618H33.4978L33.363 62.7757C31.5539 65.4042 28.528 67 25.2997 67C22.0871 67 19.0882 65.4042 17.2635 62.7757L17.1017 62.5618H8.74182L8.58002 62.8024C7.65988 64.2558 6.33004 65.4657 4.7237 66.3316L4.42706 66.492V66.8128C4.42706 67.1839 4.15413 67.4812 3.77984 67.4812C3.40555 67.4812 3.13263 67.1839 3.13263 66.8128V47.7767C3.13263 47.4211 3.42114 47.135 3.77984 47.135C4.15413 47.135 4.42706 47.4056 4.42706 47.7767V48.0975L4.7237 48.2579C6.29885 49.0929 7.62869 50.3295 8.58002 51.8138L8.74182 52.0545H17.0747L17.2365 51.8138C18.5309 49.9584 20.4693 48.5823 22.6839 47.9638L23.0614 47.8569V39.1409H21.9828V47.0548C19.7838 47.7661 17.8652 49.1451 16.5084 50.985H9.30813C8.31002 49.5471 6.99577 48.3217 5.45181 47.4559C5.29586 46.6518 4.61063 46.0656 3.75287 46.0656C2.78595 46.0656 2 46.8448 2 47.8034V66.8128C2 67.7869 2.77035 68.5507 3.75287 68.5507C4.61063 68.5507 5.29586 67.9644 5.45181 67.1604C7.02696 66.279 8.34121 65.0692 9.30813 63.6312H16.5084C18.5514 66.4143 21.8219 68.0694 25.2997 68.0694C28.7931 68.0694 32.0367 66.4143 34.0641 63.6312C41.472 63.6931 47.321 69.3157 47.6017 76.5982C46.1357 76.8301 45.0398 78.0774 45.0398 79.5927C45.0398 81.2625 46.4028 82.6406 48.0871 82.6406H59.9527C61.637 82.6406 63 81.2625 63 79.5927C62.9844 78.0774 61.8502 76.8301 60.3842 76.5982C60.0879 62.4506 48.4078 51.0201 34.0911 50.9583C32.7343 49.1029 30.8001 47.7506 28.6167 47.0548V39.1142H27.5111ZM54.0199 83.6031L53.5075 85.0468C52.8057 87.0414 51.3287 89.0115 49.8939 90.9288C47.7417 93.7738 45.5424 96.7228 45.714 99.9388V99.9656C45.714 104.589 49.4348 108.334 54.0199 108.334C58.5738 108.334 62.2946 104.584 62.3258 99.9923V99.9656C62.4974 96.7495 60.3094 93.8272 58.1729 90.9822C56.7381 89.065 55.2341 87.0836 54.5323 85.0736L54.0199 83.6031ZM53.9929 86.6243C54.8351 88.3405 56.0821 90.0004 57.2829 91.6239C59.3883 94.438 61.3761 97.0826 61.2202 99.9121V99.9923C61.2046 104.012 57.9542 107.265 53.9929 107.265C50.0161 107.265 46.7657 103.986 46.7657 99.9656V99.9121C46.6097 97.0671 48.6089 94.4 50.7299 91.5704C51.9307 89.9624 53.1664 88.3251 53.9929 86.6243Z"/>
</mask>
<path d="M12.706 31.334C9.91441 31.334 7.63616 33.604 7.63616 36.3871C7.63616 39.1548 9.91441 41.3868 12.706 41.3868C14.6243 41.3868 16.3788 40.3296 17.2365 38.6597H33.363C34.2207 40.3296 35.9482 41.3868 37.8665 41.3868C40.6581 41.3868 42.9477 39.1548 42.9633 36.3871C42.9633 33.604 40.6737 31.334 37.8665 31.334C35.9638 31.334 34.2363 32.3912 33.363 34.0611H17.2365C16.3788 32.3912 14.6243 31.334 12.706 31.334ZM12.679 32.4034C14.2854 32.4034 15.7497 33.3675 16.3736 34.8364L16.5084 35.1572H34.0641L34.1989 34.8364C34.8384 33.3675 36.2757 32.4034 37.8665 32.4034C40.0655 32.4034 41.8576 34.207 41.8576 36.3871C41.8576 38.5672 40.0655 40.3173 37.8665 40.3173C36.2601 40.3173 34.8228 39.3799 34.1989 37.9111L34.0641 37.5902H16.5084L16.3736 37.9111C15.7497 39.3799 14.2854 40.3173 12.679 40.3173C10.4801 40.3173 8.71485 38.5672 8.71485 36.3871C8.71485 34.207 10.4801 32.4034 12.679 32.4034ZM27.5111 39.1142V47.8569L27.9156 47.9638C30.1145 48.5669 32.0529 49.943 33.363 51.8138L33.5248 52.0277H33.9832C47.9256 52.0277 59.2743 63.2833 59.3055 77.1062V77.6677H59.9527C61.0288 77.6677 61.8943 78.5258 61.8943 79.5927C61.8943 80.6595 61.0288 81.5444 59.9527 81.5444H48.0871C47.011 81.5444 46.1185 80.6595 46.1185 79.5927C46.1185 78.5258 47.011 77.6677 48.0871 77.6677H48.7073V77.1062C48.6761 68.9424 42.1907 62.5618 33.9562 62.5618H33.4978L33.363 62.7757C31.5539 65.4042 28.528 67 25.2997 67C22.0871 67 19.0882 65.4042 17.2635 62.7757L17.1017 62.5618H8.74182L8.58002 62.8024C7.65988 64.2558 6.33004 65.4657 4.7237 66.3316L4.42706 66.492V66.8128C4.42706 67.1839 4.15413 67.4812 3.77984 67.4812C3.40555 67.4812 3.13263 67.1839 3.13263 66.8128V47.7767C3.13263 47.4211 3.42114 47.135 3.77984 47.135C4.15413 47.135 4.42706 47.4056 4.42706 47.7767V48.0975L4.7237 48.2579C6.29885 49.0929 7.62869 50.3295 8.58002 51.8138L8.74182 52.0545H17.0747L17.2365 51.8138C18.5309 49.9584 20.4693 48.5823 22.6839 47.9638L23.0614 47.8569V39.1409H21.9828V47.0548C19.7838 47.7661 17.8652 49.1451 16.5084 50.985H9.30813C8.31002 49.5471 6.99577 48.3217 5.45181 47.4559C5.29586 46.6518 4.61063 46.0656 3.75287 46.0656C2.78595 46.0656 2 46.8448 2 47.8034V66.8128C2 67.7869 2.77035 68.5507 3.75287 68.5507C4.61063 68.5507 5.29586 67.9644 5.45181 67.1604C7.02696 66.279 8.34121 65.0692 9.30813 63.6312H16.5084C18.5514 66.4143 21.8219 68.0694 25.2997 68.0694C28.7931 68.0694 32.0367 66.4143 34.0641 63.6312C41.472 63.6931 47.321 69.3157 47.6017 76.5982C46.1357 76.8301 45.0398 78.0774 45.0398 79.5927C45.0398 81.2625 46.4028 82.6406 48.0871 82.6406H59.9527C61.637 82.6406 63 81.2625 63 79.5927C62.9844 78.0774 61.8502 76.8301 60.3842 76.5982C60.0879 62.4506 48.4078 51.0201 34.0911 50.9583C32.7343 49.1029 30.8001 47.7506 28.6167 47.0548V39.1142H27.5111ZM54.0199 83.6031L53.5075 85.0468C52.8057 87.0414 51.3287 89.0115 49.8939 90.9288C47.7417 93.7738 45.5424 96.7228 45.714 99.9388V99.9656C45.714 104.589 49.4348 108.334 54.0199 108.334C58.5738 108.334 62.2946 104.584 62.3258 99.9923V99.9656C62.4974 96.7495 60.3094 93.8272 58.1729 90.9822C56.7381 89.065 55.2341 87.0836 54.5323 85.0736L54.0199 83.6031ZM53.9929 86.6243C54.8351 88.3405 56.0821 90.0004 57.2829 91.6239C59.3883 94.438 61.3761 97.0826 61.2202 99.9121V99.9923C61.2046 104.012 57.9542 107.265 53.9929 107.265C50.0161 107.265 46.7657 103.986 46.7657 99.9656V99.9121C46.6097 97.0671 48.6089 94.4 50.7299 91.5704C51.9307 89.9624 53.1664 88.3251 53.9929 86.6243Z" fill="white"/>
<path d="M12.706 31.334C9.91441 31.334 7.63616 33.604 7.63616 36.3871C7.63616 39.1548 9.91441 41.3868 12.706 41.3868C14.6243 41.3868 16.3788 40.3296 17.2365 38.6597H33.363C34.2207 40.3296 35.9482 41.3868 37.8665 41.3868C40.6581 41.3868 42.9477 39.1548 42.9633 36.3871C42.9633 33.604 40.6737 31.334 37.8665 31.334C35.9638 31.334 34.2363 32.3912 33.363 34.0611H17.2365C16.3788 32.3912 14.6243 31.334 12.706 31.334ZM12.679 32.4034C14.2854 32.4034 15.7497 33.3675 16.3736 34.8364L16.5084 35.1572H34.0641L34.1989 34.8364C34.8384 33.3675 36.2757 32.4034 37.8665 32.4034C40.0655 32.4034 41.8576 34.207 41.8576 36.3871C41.8576 38.5672 40.0655 40.3173 37.8665 40.3173C36.2601 40.3173 34.8228 39.3799 34.1989 37.9111L34.0641 37.5902H16.5084L16.3736 37.9111C15.7497 39.3799 14.2854 40.3173 12.679 40.3173C10.4801 40.3173 8.71485 38.5672 8.71485 36.3871C8.71485 34.207 10.4801 32.4034 12.679 32.4034ZM27.5111 39.1142V47.8569L27.9156 47.9638C30.1145 48.5669 32.0529 49.943 33.363 51.8138L33.5248 52.0277H33.9832C47.9256 52.0277 59.2743 63.2833 59.3055 77.1062V77.6677H59.9527C61.0288 77.6677 61.8943 78.5258 61.8943 79.5927C61.8943 80.6595 61.0288 81.5444 59.9527 81.5444H48.0871C47.011 81.5444 46.1185 80.6595 46.1185 79.5927C46.1185 78.5258 47.011 77.6677 48.0871 77.6677H48.7073V77.1062C48.6761 68.9424 42.1907 62.5618 33.9562 62.5618H33.4978L33.363 62.7757C31.5539 65.4042 28.528 67 25.2997 67C22.0871 67 19.0882 65.4042 17.2635 62.7757L17.1017 62.5618H8.74182L8.58002 62.8024C7.65988 64.2558 6.33004 65.4657 4.7237 66.3316L4.42706 66.492V66.8128C4.42706 67.1839 4.15413 67.4812 3.77984 67.4812C3.40555 67.4812 3.13263 67.1839 3.13263 66.8128V47.7767C3.13263 47.4211 3.42114 47.135 3.77984 47.135C4.15413 47.135 4.42706 47.4056 4.42706 47.7767V48.0975L4.7237 48.2579C6.29885 49.0929 7.62869 50.3295 8.58002 51.8138L8.74182 52.0545H17.0747L17.2365 51.8138C18.5309 49.9584 20.4693 48.5823 22.6839 47.9638L23.0614 47.8569V39.1409H21.9828V47.0548C19.7838 47.7661 17.8652 49.1451 16.5084 50.985H9.30813C8.31002 49.5471 6.99577 48.3217 5.45181 47.4559C5.29586 46.6518 4.61063 46.0656 3.75287 46.0656C2.78595 46.0656 2 46.8448 2 47.8034V66.8128C2 67.7869 2.77035 68.5507 3.75287 68.5507C4.61063 68.5507 5.29586 67.9644 5.45181 67.1604C7.02696 66.279 8.34121 65.0692 9.30813 63.6312H16.5084C18.5514 66.4143 21.8219 68.0694 25.2997 68.0694C28.7931 68.0694 32.0367 66.4143 34.0641 63.6312C41.472 63.6931 47.321 69.3157 47.6017 76.5982C46.1357 76.8301 45.0398 78.0774 45.0398 79.5927C45.0398 81.2625 46.4028 82.6406 48.0871 82.6406H59.9527C61.637 82.6406 63 81.2625 63 79.5927C62.9844 78.0774 61.8502 76.8301 60.3842 76.5982C60.0879 62.4506 48.4078 51.0201 34.0911 50.9583C32.7343 49.1029 30.8001 47.7506 28.6167 47.0548V39.1142H27.5111ZM54.0199 83.6031L53.5075 85.0468C52.8057 87.0414 51.3287 89.0115 49.8939 90.9288C47.7417 93.7738 45.5424 96.7228 45.714 99.9388V99.9656C45.714 104.589 49.4348 108.334 54.0199 108.334C58.5738 108.334 62.2946 104.584 62.3258 99.9923V99.9656C62.4974 96.7495 60.3094 93.8272 58.1729 90.9822C56.7381 89.065 55.2341 87.0836 54.5323 85.0736L54.0199 83.6031ZM53.9929 86.6243C54.8351 88.3405 56.0821 90.0004 57.2829 91.6239C59.3883 94.438 61.3761 97.0826 61.2202 99.9121V99.9923C61.2046 104.012 57.9542 107.265 53.9929 107.265C50.0161 107.265 46.7657 103.986 46.7657 99.9656V99.9121C46.6097 97.0671 48.6089 94.4 50.7299 91.5704C51.9307 89.9624 53.1664 88.3251 53.9929 86.6243Z" stroke="white" mask="url(#path-1-outside-1)"/>
</svg>

<svg width="134" height="135" fill="none" xmlns="http://www.w3.org/2000/svg"><mask id="path-1-outside-1" maskUnits="userSpaceOnUse" x="1" y="30.334" width="63" height="79" fill="#000"><path fill="#fff" d="M1 30.334h63v79H1z"/><path d="M12.706 31.334c-2.792 0-5.07 2.27-5.07 5.053 0 2.768 2.278 5 5.07 5 1.918 0 3.673-1.057 4.53-2.727h16.127a5.042 5.042 0 004.504 2.727c2.791 0 5.08-2.232 5.096-5 0-2.783-2.29-5.053-5.096-5.053a5.078 5.078 0 00-4.504 2.727H17.236c-.857-1.67-2.612-2.727-4.53-2.727zm-.027 1.07c1.606 0 3.07.963 3.695 2.432l.134.321h17.556l.135-.32c.64-1.47 2.077-2.434 3.668-2.434 2.199 0 3.99 1.804 3.99 3.984 0 2.18-1.791 3.93-3.99 3.93a3.96 3.96 0 01-3.668-2.406l-.135-.32H16.508l-.134.32c-.624 1.469-2.089 2.406-3.695 2.406-2.199 0-3.964-1.75-3.964-3.93s1.765-3.984 3.964-3.984zm14.832 6.71v8.743l.405.107a9.87 9.87 0 015.447 3.85l.162.214h.458c13.943 0 25.291 11.255 25.323 25.078v.562h.647c1.076 0 1.941.858 1.941 1.925a1.951 1.951 0 01-1.941 1.951H48.087c-1.076 0-1.969-.885-1.969-1.951 0-1.067.893-1.925 1.97-1.925h.62v-.562c-.032-8.164-6.517-14.544-14.752-14.544h-.458l-.135.214A9.807 9.807 0 0125.3 67a9.8 9.8 0 01-8.037-4.224l-.161-.214h-8.36l-.162.24c-.92 1.454-2.25 2.664-3.856 3.53l-.297.16v.32c0 .372-.273.67-.647.67s-.647-.298-.647-.67V47.778c0-.356.288-.642.647-.642.374 0 .647.27.647.642v.32l.297.16a10.357 10.357 0 013.856 3.557l.162.24h8.333l.162-.24a9.913 9.913 0 015.447-3.85l.377-.107V39.14h-1.078v7.914a11.016 11.016 0 00-5.475 3.93h-7.2a11.67 11.67 0 00-3.856-3.53 1.706 1.706 0 00-1.7-1.39c-.966 0-1.752.78-1.752 1.738v19.01c0 .974.77 1.738 1.753 1.738.858 0 1.543-.587 1.699-1.39a11.244 11.244 0 003.856-3.53h7.2a10.912 10.912 0 008.792 4.44c3.493 0 6.737-1.655 8.764-4.438 7.408.062 13.257 5.685 13.538 12.967a3.022 3.022 0 00-2.562 2.995 3.055 3.055 0 003.047 3.048h11.866A3.055 3.055 0 0063 79.593c-.016-1.516-1.15-2.763-2.616-2.995-.296-14.147-11.976-25.578-26.293-25.64-1.357-1.855-3.29-3.207-5.474-3.903v-7.94H27.51zm26.509 44.49l-.513 1.443c-.701 1.994-2.178 3.965-3.613 5.882-2.152 2.845-4.352 5.794-4.18 9.01v.027c0 4.623 3.72 8.368 8.306 8.368 4.554 0 8.275-3.75 8.306-8.342v-.026c.171-3.216-2.017-6.139-4.153-8.984-1.435-1.917-2.939-3.898-3.64-5.908l-.513-1.47zm-.027 3.02c.842 1.717 2.09 3.376 3.29 5 2.105 2.814 4.093 5.459 3.937 8.288v.08c-.015 4.02-3.266 7.273-7.227 7.273-3.977 0-7.227-3.279-7.227-7.3v-.053c-.156-2.845 1.843-5.512 3.964-8.342 1.2-1.608 2.436-3.245 3.263-4.946z"/></mask><path d="M12.706 31.334c-2.792 0-5.07 2.27-5.07 5.053 0 2.768 2.278 5 5.07 5 1.918 0 3.673-1.057 4.53-2.727h16.127a5.042 5.042 0 004.504 2.727c2.791 0 5.08-2.232 5.096-5 0-2.783-2.29-5.053-5.096-5.053a5.078 5.078 0 00-4.504 2.727H17.236c-.857-1.67-2.612-2.727-4.53-2.727zm-.027 1.07c1.606 0 3.07.963 3.695 2.432l.134.321h17.556l.135-.32c.64-1.47 2.077-2.434 3.668-2.434 2.199 0 3.99 1.804 3.99 3.984 0 2.18-1.791 3.93-3.99 3.93a3.96 3.96 0 01-3.668-2.406l-.135-.32H16.508l-.134.32c-.624 1.469-2.089 2.406-3.695 2.406-2.199 0-3.964-1.75-3.964-3.93s1.765-3.984 3.964-3.984zm14.832 6.71v8.743l.405.107a9.87 9.87 0 015.447 3.85l.162.214h.458c13.943 0 25.291 11.255 25.323 25.078v.562h.647c1.076 0 1.941.858 1.941 1.925a1.951 1.951 0 01-1.941 1.951H48.087c-1.076 0-1.969-.885-1.969-1.951 0-1.067.893-1.925 1.97-1.925h.62v-.562c-.032-8.164-6.517-14.544-14.752-14.544h-.458l-.135.214A9.807 9.807 0 0125.3 67a9.8 9.8 0 01-8.037-4.224l-.161-.214h-8.36l-.162.24c-.92 1.454-2.25 2.664-3.856 3.53l-.297.16v.32c0 .372-.273.67-.647.67s-.647-.298-.647-.67V47.778c0-.356.288-.642.647-.642.374 0 .647.27.647.642v.32l.297.16a10.357 10.357 0 013.856 3.557l.162.24h8.333l.162-.24a9.913 9.913 0 015.447-3.85l.377-.107V39.14h-1.078v7.914a11.016 11.016 0 00-5.475 3.93h-7.2a11.67 11.67 0 00-3.856-3.53 1.706 1.706 0 00-1.7-1.39c-.966 0-1.752.78-1.752 1.738v19.01c0 .974.77 1.738 1.753 1.738.858 0 1.543-.587 1.699-1.39a11.244 11.244 0 003.856-3.53h7.2a10.912 10.912 0 008.792 4.44c3.493 0 6.737-1.655 8.764-4.438 7.408.062 13.257 5.685 13.538 12.967a3.022 3.022 0 00-2.562 2.995 3.055 3.055 0 003.047 3.048h11.866A3.055 3.055 0 0063 79.593c-.016-1.516-1.15-2.763-2.616-2.995-.296-14.147-11.976-25.578-26.293-25.64-1.357-1.855-3.29-3.207-5.474-3.903v-7.94H27.51zm26.509 44.49l-.513 1.443c-.701 1.994-2.178 3.965-3.613 5.882-2.152 2.845-4.352 5.794-4.18 9.01v.027c0 4.623 3.72 8.368 8.306 8.368 4.554 0 8.275-3.75 8.306-8.342v-.026c.171-3.216-2.017-6.139-4.153-8.984-1.435-1.917-2.939-3.898-3.64-5.908l-.513-1.47zm-.027 3.02c.842 1.717 2.09 3.376 3.29 5 2.105 2.814 4.093 5.459 3.937 8.288v.08c-.015 4.02-3.266 7.273-7.227 7.273-3.977 0-7.227-3.279-7.227-7.3v-.053c-.156-2.845 1.843-5.512 3.964-8.342 1.2-1.608 2.436-3.245 3.263-4.946z" fill="#fff"/><path d="M12.706 31.334c-2.792 0-5.07 2.27-5.07 5.053 0 2.768 2.278 5 5.07 5 1.918 0 3.673-1.057 4.53-2.727h16.127a5.042 5.042 0 004.504 2.727c2.791 0 5.08-2.232 5.096-5 0-2.783-2.29-5.053-5.096-5.053a5.078 5.078 0 00-4.504 2.727H17.236c-.857-1.67-2.612-2.727-4.53-2.727zm-.027 1.07c1.606 0 3.07.963 3.695 2.432l.134.321h17.556l.135-.32c.64-1.47 2.077-2.434 3.668-2.434 2.199 0 3.99 1.804 3.99 3.984 0 2.18-1.791 3.93-3.99 3.93a3.96 3.96 0 01-3.668-2.406l-.135-.32H16.508l-.134.32c-.624 1.469-2.089 2.406-3.695 2.406-2.199 0-3.964-1.75-3.964-3.93s1.765-3.984 3.964-3.984zm14.832 6.71v8.743l.405.107a9.87 9.87 0 015.447 3.85l.162.214h.458c13.943 0 25.291 11.255 25.323 25.078v.562h.647c1.076 0 1.941.858 1.941 1.925a1.951 1.951 0 01-1.941 1.951H48.087c-1.076 0-1.969-.885-1.969-1.951 0-1.067.893-1.925 1.97-1.925h.62v-.562c-.032-8.164-6.517-14.544-14.752-14.544h-.458l-.135.214A9.807 9.807 0 0125.3 67a9.8 9.8 0 01-8.037-4.224l-.161-.214h-8.36l-.162.24c-.92 1.454-2.25 2.664-3.856 3.53l-.297.16v.32c0 .372-.273.67-.647.67s-.647-.298-.647-.67V47.778c0-.356.288-.642.647-.642.374 0 .647.27.647.642v.32l.297.16a10.357 10.357 0 013.856 3.557l.162.24h8.333l.162-.24a9.913 9.913 0 015.447-3.85l.377-.107V39.14h-1.078v7.914a11.016 11.016 0 00-5.475 3.93h-7.2a11.67 11.67 0 00-3.856-3.53 1.706 1.706 0 00-1.7-1.39c-.966 0-1.752.78-1.752 1.738v19.01c0 .974.77 1.738 1.753 1.738.858 0 1.543-.587 1.699-1.39a11.244 11.244 0 003.856-3.53h7.2a10.912 10.912 0 008.792 4.44c3.493 0 6.737-1.655 8.764-4.438 7.408.062 13.257 5.685 13.538 12.967a3.022 3.022 0 00-2.562 2.995 3.055 3.055 0 003.047 3.048h11.866A3.055 3.055 0 0063 79.593c-.016-1.516-1.15-2.763-2.616-2.995-.296-14.147-11.976-25.578-26.293-25.64-1.357-1.855-3.29-3.207-5.474-3.903v-7.94H27.51zm26.509 44.49l-.513 1.443c-.701 1.994-2.178 3.965-3.613 5.882-2.152 2.845-4.352 5.794-4.18 9.01v.027c0 4.623 3.72 8.368 8.306 8.368 4.554 0 8.275-3.75 8.306-8.342v-.026c.171-3.216-2.017-6.139-4.153-8.984-1.435-1.917-2.939-3.898-3.64-5.908l-.513-1.47zm-.027 3.02c.842 1.717 2.09 3.376 3.29 5 2.105 2.814 4.093 5.459 3.937 8.288v.08c-.015 4.02-3.266 7.273-7.227 7.273-3.977 0-7.227-3.279-7.227-7.3v-.053c-.156-2.845 1.843-5.512 3.964-8.342 1.2-1.608 2.436-3.245 3.263-4.946z" stroke="#fff" mask="url(#path-1-outside-1)"/></svg>
